X: 40252
T: Tivoli Capers
R: reel
M: 4/4
K: Dmajor
{G}FE|DEFB {c}AF{G}ED|GB{c}Bd {c}BA G2|ABcd eAce|defb a3 z|
DEFB {c}AF{G}ED|GB{c}Bd {c}BA G2|ABcd eAce|1 dfec d2:|2 dfec d2 z2||
af{a}fe db{c'}ba|(3gbg ec ABce|af{a}fe d2 {a}fe|defb a3 a|
af{a}fe db{c'}ba|(3gbg ec ABce|abge {a}fdec|1 dfec d2 z2:|2 dfec d2||
{G}FE|DEFB {c}AF{G}ED|GB{c}Bd {c}BA G2|ABcd eAce|defb a3 z|
DEFB {c}AF{G}ED|GB{c}Bd {c}BA G2|ABcd eAce|dfec d2 {G}FE||
DEFB {c}AF{G}ED|~B3 d {c}BA G2|AceA ceAc|defb {c'}a^g a2|
FADF AFED|{c}BD{c}BD {c}BA G2|ABcd eAce|dfec d3 a||
af{a}fe db{c'}ba|(3gbg ec ABce|af{a}fe d2 {a}fe|defb a3 a|
af{a}fe db{c'}ba|(3gbg ec ABce|abge {a}fdec|1 dfec d2 z2:|2 dfec d2||

